X:96
T:The Holey Halfpenny
Z:Jack Campin, http://www.campin.me.uk/
S:Northumbrian Minstrelsy
M:6/8
L:1/8
K:G
d|:B2G GBG|d2G GBG|B2G GBG|d3 edc |
   B2G GBG|d2c BAG|A2f fef|c3 edc:|
   B2g gfg|d2g B2g|B2g gfg|c3 edc |
   B2g gfg|d2g B2g|A2f fef|c3 edc:|

